X: 10
T:Unknown 2
M:6/8
L:1/8
Q:120
R:Jig
K:C
ecA GEG|cGc edc|dBG FDF|BAB GAB|
ecA GEG|cGc edc|BAB GAB|cGe c2c|
BAG FED|CEG cBA|BAB dcB|cGc edc|
BAG FED|CEG cde|dcB ABG|ced c3|
